packages/core/src/svgs/networks/branded/polkadot.svg

<svg width="24" height="24" viewBox="0 0 24 24" fill="none" xmlns="http://www.w3.org/2000/svg">
<path d="M15.5238 4.05874C15.5238 5.19379 13.9427 6.11748 11.9951 6.11748C10.0475 6.11748 8.46505 5.19379 8.46505 4.05874C8.46505 2.92369 10.0544 2 11.9951 2C13.9358 2 15.5238 2.92369 15.5238 4.05874ZM15.5238 19.9413C15.5238 21.0763 13.9427 22 11.9951 22C10.0475 22 8.46505 21.0763 8.46505 19.9413C8.46505 18.8062 10.0544 17.8825 11.9951 17.8825C13.9358 17.8825 15.5238 18.8062 15.5238 19.9413ZM6.90726 9.1452C7.90644 7.42272 7.9133 5.55751 6.9306 4.99341C5.9424 4.42245 4.34207 5.36398 3.3429 7.08784C2.34235 8.81032 2.34235 10.6756 3.31819 11.2396C4.30639 11.8051 5.90672 10.8677 6.90726 9.1452ZM20.6597 12.7535C21.6479 13.3121 21.6424 15.1416 20.6473 16.8353C19.6481 18.529 18.0423 19.4472 17.0596 18.8886C16.0659 18.3299 16.0714 16.5004 17.0651 14.8054C18.0657 13.1117 19.6715 12.1949 20.6597 12.7535ZM6.93609 18.8995C7.92428 18.3409 7.91879 16.5114 6.91824 14.8177C5.92456 13.1241 4.31874 12.2059 3.33054 12.7645C2.33686 13.33 2.34235 15.1526 3.3429 16.8463C4.33658 18.5413 5.9424 19.465 6.9306 18.905L6.93609 18.8995ZM20.6597 7.0947C21.6588 8.81718 21.6588 10.6769 20.6775 11.241C19.6948 11.812 18.089 10.8773 17.0884 9.14795C16.1002 7.4241 16.0893 5.56574 17.0706 5.00027C18.0588 4.42931 19.6591 5.36536 20.6597 7.0947Z" fill="#E6007A"/>
</svg>

<svg xmlns="http://www.w3.org/2000/svg" width="24" height="24" fill="none" viewBox="0 0 24 24">
    <path fill="#E6007A" d="M15.524 4.059c0 1.135-1.581 2.058-3.529 2.058s-3.53-.923-3.53-2.058S10.055 2 11.995 2s3.529.924 3.529 2.059m0 15.882c0 1.135-1.581 2.059-3.529 2.059s-3.53-.924-3.53-2.059 1.59-2.058 3.53-2.058 3.529.923 3.529 2.058M6.907 9.145c1-1.722 1.006-3.587.024-4.152-.989-.57-2.589.371-3.588 2.095-1 1.722-1 3.588-.025 4.152.988.565 2.589-.372 3.59-2.095m13.753 3.609c.988.558.982 2.388-.013 4.081-.999 1.694-2.605 2.612-3.587 2.054-.994-.56-.989-2.389.005-4.084 1-1.693 2.607-2.61 3.595-2.051M6.936 18.9c.988-.56.983-2.389-.018-4.082-.993-1.694-2.6-2.612-3.587-2.053-.994.565-.989 2.388.012 4.081.994 1.695 2.6 2.619 3.588 2.059zM20.66 7.095c.999 1.722.999 3.582.017 4.146-.982.571-2.588-.364-3.589-2.093C16.1 7.424 16.09 5.566 17.071 5c.988-.57 2.588.365 3.589 2.095"/>
</svg>
